**harmony	**harte	**kern	**silbe	**rhyme	**timestamp	**phrase
*M4/4	*M4/4	*ICvox	*	*	*	*
*	*	*VRlead	*	*	*	*
*	*	*Hstimme	*	*	*	*
*E-:	*E-:	*E-:	*	*	*	*
*	*	*M4/4	*	*	*	*
*	*	*clefG2	*	*	*	*
1r;	1r	r;	.	.	0	.
=1	=1	=1	=1	=1	=1	=1
*>Letter>A	*>Letter>A	*>Letter>A	*>Letter>A	*>Letter>A	*>Letter>A	*>Letter>A
*>Label>Intro	*>Label>Intro	*>Label>Intro	*>Label>Intro	*>Label>Intro	*>Label>Intro	*>Label>Intro
1E-M	E-:maj	2r	.	.	0.881	newline
.	.	8r	.	.	.	.
.	.	8ddq	_	.	.	.
.	.	8ee-	Hoo	.	.	.
.	.	8dd	_	.	.	.
.	.	8b-q	_	.	.	.
.	.	8cc	hoo	.	.	.
=2	=2	=2	=2	=2	=2	=2
1A-M	A-:maj/5	[4b-	_	.	4.588	.
.	.	16b-]	_	.	.	.
.	.	16a-	_	.	.	.
.	.	16g	_	.	.	.
.	.	16a-	_	.	.	.
.	.	2b-	.	.	.	.
=3	=3	=3	=3	=3	=3	=3
1E-M	E-:maj	2r	.	.	8.294	.
.	.	8r	.	.	.	.
.	.	8ddq	_	.	.	.
.	.	8ee-	Hoo	.	.	.
.	.	8dd	_	.	.	.
.	.	8b-q	_	.	.	.
.	.	8cc	hoo	.	.	.
=4	=4	=4	=4	=4	=4	=4
1A-M	A-:maj/5	1b-	.	.	12	.
=5	=5	=5	=5	=5	=5	=5
*>Letter>B	*>Letter>B	*>Letter>B	*>Letter>B	*>Letter>B	*>Letter>B	*>Letter>B
*>Label>Verse	*>Label>Verse	*>Label>Verse	*>Label>Verse	*>Label>Verse	*>Label>Verse	*>Label>Verse
1E-MM	E-:maj7	4r	.	.	15.706	newline
.	.	8r	.	.	.	.
.	.	8cq	_	.	.	.
.	.	8d	Last	.	.	.
.	.	8B-q	_	.	.	.
.	.	8c	dance	A	.	.
.	.	4.B-	_	.	.	.
=6	=6	=6	=6	=6	=6	=6
1A-M	A-:maj/5	4r	.	.	19.491	.
.	.	8r	.	.	.	.
.	.	8cq	_	.	.	.
.	.	8d	last	.	.	.
.	.	8B-q	_	.	.	.
.	.	8c	chance	A	.	.
.	.	4B-	_	.	.	.
.	.	16c	for	.	.	.
.	.	[16B-	_	.	.	.
=7	=7	=7	=7	=7	=7	=7
1E-MM	E-:maj7	16B-]	_	.	23.275	.
.	.	32c	love	.	.	.
.	.	32d-	_	.	.	.
.	.	32c	_	.	.	.
.	.	[16.B-	_	.	.	.
.	.	4B-]	_	.	.	.
.	.	2r	.	.	.	.
=8	=8	=8	=8	=8	=8	=8
1B-Am	B-:aug(b7)	2r	.	.	27.06	.
.	.	4r	.	.	.	.
.	.	16B-	Yes,	.	.	.
.	.	8c	it's	.	.	.
.	.	[16B-	my	.	.	.
=9	=9	=9	=9	=9	=9	=9
1E-MM	E-:maj7	16B-]	_	.	30.844	newline
.	.	8cq	_	.	.	.
.	.	8.d	last	.	.	.
.	.	8B-q	_	.	.	.
.	.	8c	chance	A	.	.
.	.	[8B-	_	.	.	.
.	.	4B-]	_	.	.	.
.	.	8.r	.	.	.	.
.	.	16E-	for	.	.	.
=10	=10	=10	=10	=10	=10	=10
1A-M	A-:maj/5	8e-	ro-	.	34.65	.
.	.	[4.e-	-mance	A	.	.
.	.	8e-]	_	.	.	.
.	.	4r	.	.	.	.
.	.	16c	to-	.	.	.
.	.	[16B-	-night	.	.	.
=11	=11	=11	=11	=11	=11	=11
1E-Mm	E-:7	16B-]	_	.	38.456	.
.	.	32c	_	.	.	.
.	.	32d-	_	.	.	.
.	.	32c	_	.	.	.
.	.	[16B-	_	.	.	.
.	.	[32c	_	.	.	.
.	.	16c]	_	.	.	.
.	.	16B-]	_	.	.	.
.	.	16c	_	.	.	.
.	.	[8B-	_	.	.	.
.	.	2B-]	_	.	.	.
=12	=12	=12	=12	=12	=12	=12
1E-Mm	E-:7	2r	.	.	42.262	.
.	.	4r	.	.	.	.
.	.	8r	.	.	.	.
.	.	8e-	I	.	.	.
=13	=13	=13	=13	=13	=13	=13
1A-MM	A-:maj7	8e-	need	.	46.068	newline
.	.	16e-	you	.	.	.
.	.	[16c	_	.	.	.
.	.	16c]	_	.	.	.
.	.	8.r	.	.	.	.
.	.	2r	.	.	.	.
=14	=14	=14	=14	=14	=14	=14
.	.	8e-q	_	.	.	.
1B-M	B-:maj/b7	8f	by	B	49.842	.
.	.	16f	me	.	.	.
.	.	16d	_	.	.	.
.	.	4r	.	.	.	.
.	.	4r	.	.	.	.
.	.	8.r	.	.	.	.
.	.	16f	be-	.	.	.
=15	=15	=15	=15	=15	=15	=15
1Gmm	G:min7	8g	-side	B	53.616	.
.	.	8f#q	_	.	.	.
.	.	[4.g	me	.	.	.
.	.	4g]	_	.	.	.
.	.	8fq	_	.	.	.
.	.	8g	to	.	.	.
.	.	32g-	guide	B	.	.
.	.	32f	_	.	.	.
.	.	[16e-	_	.	.	.
=16	=16	=16	=16	=16	=16	=16
1Cm	C:min	16e-]	_	.	57.39	.
.	.	32f	me	.	.	.
.	.	[32e-	_	.	.	.
.	.	8e-_	_	.	.	.
.	.	4e-]	_	.	.	.
.	.	4r	.	.	.	.
.	.	8.r	.	.	.	.
.	.	16e-	To	.	.	.
=17	=17	=17	=17	=17	=17	=17
.	.	16e-Q	_	.	.	.
1A-MM	A-:maj7	16f	hold	C	61.164	newline
.	.	8e-	_	.	.	.
.	.	16e-	me	.	.	.
.	.	16c	_	.	.	.
.	.	8.r	.	.	.	.
.	.	4r	.	.	.	.
.	.	8.r	.	.	.	.
.	.	16e-	to	.	.	.
=18	=18	=18	=18	=18	=18	=18
.	.	8e-q	_	.	.	.
1B-M	B-:maj/b7	8f	scold	C	64.333	.
.	.	8f	me	.	.	.
.	.	4r	.	.	.	.
.	.	8r	.	.	.	.
.	.	8d	cuz	.	.	.
.	.	16e-	when	.	.	.
.	.	16f	I'm	.	.	.
.	.	8f#q	_	.	.	.
.	.	[8g	bad,	.	.	.
=19	=19	=19	=19	=19	=19	=19
2Gmm	G:min7	4g]	_	.	67.502	.
.	.	4g	I'm	.	.	.
.	.	8fq	_	.	.	.
2GMm	G:7	6g	so,	.	69.087	.
.	.	8fq	_	.	.	.
.	.	6g	so	.	.	.
.	.	24f	bad	.	.	.
.	.	24f#	_	.	.	.
.	.	24f	_	.	.	.
.	.	24e-	_	.	.	.
=20	=20	=20	=20	=20	=20	=20
2Cm	C:min	32f	_	.	70.671	.
.	.	32e-	_	.	.	.
.	.	32f	_	.	.	.
.	.	[32e-	_	.	.	.
.	.	8e-_	_	.	.	.
.	.	4e-_	_	.	.	.
2FMm	F:9	4e-]	_	.	72.256	.
.	.	4r	.	.	.	.
=21	=21	=21	=21	=21	=21	=21
1FMm;	F:9	2r	.	.	73.84	.
.	.	4r	.	.	.	.
.	.	8r	.	.	.	.
.	.	8e-	So	.	.	.
=22	=22	=22	=22	=22	=22	=22
*>Letter>A	*>Letter>A	*>Letter>A	*>Letter>A	*>Letter>A	*>Letter>A	*>Letter>A
*>Label>Chorus	*>Label>Chorus	*>Label>Chorus	*>Label>Chorus	*>Label>Chorus	*>Label>Chorus	*>Label>Chorus
1E-M	E-:maj/5	8.e-	let's	.	80.179	newline
.	.	16B-Q	_	.	.	.
.	.	[16c	dance	.	.	.
.	.	8c]	_	.	.	.
.	.	[8B-	_	.	.	.
.	.	8B-]	_	.	.	.
.	.	4r	.	.	.	.
.	.	8e-	The	.	.	.
=23	=23	=23	=23	=23	=23	=23
1A-M	A-:maj/2	8.e-	last	.	82.076	.
.	.	16e-Q	_	.	.	.
.	.	[16f	dance	.	.	.
.	.	8f]	_	.	.	.
.	.	[8e-	_	.	.	.
.	.	8e-]	_	.	.	.
.	.	4r	.	.	.	.
.	.	8e-	L-	.	.	.
=24	=24	=24	=24	=24	=24	=24
1E-M	E-:maj/5	8.e-	-let's	.	83.973	.
.	.	16B-Q	_	.	.	.
.	.	[16c	dance	.	.	.
.	.	8c]	_	.	.	.
.	.	[8B-	_	.	.	.
.	.	8B-]	_	.	.	.
.	.	4r	.	.	.	.
.	.	8e-	the	.	.	.
=25	=25	=25	=25	=25	=25	=25
1A-M	A-:maj/2	8.e-	last	.	85.87	.
.	.	16e-Q	_	.	.	.
.	.	[16f	dance	.	.	.
.	.	8f]	_	.	.	.
.	.	[8e-	_	.	.	.
.	.	8e-]	_	.	.	.
.	.	4r	.	.	.	.
.	.	8e-	L-	.	.	.
=26	=26	=26	=26	=26	=26	=26
1E-M	E-:maj/5	8.e-	-let's	.	87.768	newline
.	.	16B-Q	_	.	.	.
.	.	[16c	dance	.	.	.
.	.	8c]	_	.	.	.
.	.	[8B-	_	.	.	.
.	.	8B-]	_	.	.	.
.	.	4r	.	.	.	.
.	.	8e-	the	.	.	.
=27	=27	=27	=27	=27	=27	=27
1A-M	A-:maj/2	8.e-	last	.	89.704	.
.	.	16e-Q	_	.	.	.
.	.	[16f	dance	.	.	.
.	.	8f]	_	.	.	.
.	.	[8e-	_	.	.	.
.	.	8e-]	_	.	.	.
.	.	8r	.	.	.	.
.	.	8f	to	.	.	.
.	.	8e-	_	.	.	.
=28	=28	=28	=28	=28	=28	=28
.	.	8fq	_	.	.	.
1FMm	F:9/3	[1g	night	.	91.64	newline
=29	=29	=29	=29	=29	=29	=29
1B-M	B-:maj	4.g]	_	.	93.506	.
.	.	8r	.	.	.	.
.	.	2r	.	.	.	.
=30	=30	=30	=30	=30	=30	=30
*>Letter>B	*>Letter>B	*>Letter>B	*>Letter>B	*>Letter>B	*>Letter>B	*>Letter>B
*>Label>Verse	*>Label>Verse	*>Label>Verse	*>Label>Verse	*>Label>Verse	*>Label>Verse	*>Label>Verse
1E-MM	E-:maj7	8.d	Last	.	95.373	newline
.	.	16B-Q	_	.	.	.
.	.	[16c	dance	A	.	.
.	.	8c]	_	.	.	.
.	.	[8B-	_	.	.	.
.	.	8B-]	_	.	.	.
.	.	8r	.	.	.	.
.	.	4r	.	.	.	.
=31	=31	=31	=31	=31	=31	=31
1A-M	A-:maj/5	8.d	last	.	97.281	.
.	.	16B-Q	_	.	.	.
.	.	[16c	chance,	A	.	.
.	.	8c]	_	.	.	.
.	.	[8B-	_	.	.	.
.	.	4B-]	_	.	.	.
.	.	8c	for	.	.	.
.	.	[8B-	_	.	.	.
=32	=32	=32	=32	=32	=32	=32
1E-MM	E-:maj7	8B-]	_	.	99.188	.
.	.	16c	love	.	.	.
.	.	16d-	_	.	.	.
.	.	16c	_	.	.	.
.	.	[8.B-	_	.	.	.
.	.	4.B-]	_	.	.	.
.	.	8r	.	.	.	.
=33	=33	=33	=33	=33	=33	=33
1B-Am	B-:aug(b7)	2r	.	.	101.096	.
.	.	6B-	Yes,	.	.	.
.	.	6c	it's	.	.	.
.	.	6B-	my	.	.	.
=34	=34	=34	=34	=34	=34	=34
.	.	8cq	_	.	.	.
1E-MM	E-:maj7	8.d	last	.	103.004	newline
.	.	16B-Q	_	.	.	.
.	.	[16c	chance	A	.	.
.	.	8c]	_	.	.	.
.	.	[8B-	_	.	.	.
.	.	8B-]	_	.	.	.
.	.	4r	.	.	.	.
.	.	8~E-	for	.	.	.
=35	=35	=35	=35	=35	=35	=35
1A-M	A-:maj/5	8.e-	ro-	.	104.905	.
.	.	[16e-	-mance	A	.	.
.	.	4e-_	_	.	.	.
.	.	4e-]	_	.	.	.
.	.	8e-q	_	.	.	.
.	.	8c	to	.	.	.
.	.	[8B-	_	.	.	.
=36	=36	=36	=36	=36	=36	=36
1E-Mm	E-:7	8B-]	_	.	106.806	.
.	.	16c	night	.	.	.
.	.	16d-	_	.	.	.
.	.	16c	_	.	.	.
.	.	8B-	_	.	.	.
.	.	16c	_	.	.	.
.	.	8cq	_	.	.	.
.	.	16c	_	.	.	.
.	.	[8.B-	_	.	.	.
.	.	4B-]	_	.	.	.
=37	=37	=37	=37	=37	=37	=37
1E-Mm	E-:7	4r	.	.	108.708	.
.	.	4g	Oh,	.	.	.
.	.	8a-q	_	.	.	.
.	.	4b-	oh,	.	.	.
.	.	8fq	_	.	.	.
.	.	8g-	I	.	.	.
.	.	[8f	_	.	.	.
=38	=38	=38	=38	=38	=38	=38
1A-MM	A-:maj7	8f]	_	.	110.609	newline
.	.	8e-q	_	.	.	.
.	.	8f	need	.	.	.
.	.	8e-	_	.	.	.
.	.	8e-	you	.	.	.
.	.	8c	_	.	.	.
.	.	4r	.	.	.	.
.	.	8e-q	_	.	.	.
.	.	[8f	by	B	.	.
=39	=39	=39	=39	=39	=39	=39
1B-M	B-:maj/b7	4f]	_	.	112.507	.
.	.	8f	me	.	.	.
.	.	8d	_	.	.	.
.	.	4r	.	.	.	.
.	.	8f	be-	.	.	.
.	.	8fq	_	.	.	.
.	.	[8g	-side	B	.	.
=40	=40	=40	=40	=40	=40	=40
1Gmm	G:min7	8g]	_	.	114.405	.
.	.	[4.g	me	.	.	.
.	.	8g]	_	.	.	.
.	.	8b-	_	.	.	.
.	.	8fq	_	.	.	.
.	.	8g-	to	.	.	.
.	.	8f	guide	B	.	.
=41	=41	=41	=41	=41	=41	=41
1Cm	C:min	8e-	_	.	116.303	.
.	.	8e-	me	.	.	.
.	.	4r	.	.	.	.
.	.	4r	.	.	.	.
.	.	16r	.	.	.	.
.	.	16e-	To	.	.	.
.	.	8e-q	_	.	.	.
.	.	[8f	hold	C	.	.
=42	=42	=42	=42	=42	=42	=42
1A-MM	A-:maj7	16f]	_	.	118.201	newline
.	.	16e-	_	.	.	.
.	.	16e-	me	.	.	.
.	.	16r	.	.	.	.
.	.	4r	.	.	.	.
.	.	4r	.	.	.	.
.	.	8e-	to	.	.	.
.	.	8e-q	_	.	.	.
.	.	[8f	scold	C	.	.
=43	=43	=43	=43	=43	=43	=43
1B-M	B-:maj/b7	4f]	_	.	120.103	.
.	.	4f	me,	.	.	.
.	.	8d	cuz	.	.	.
.	.	8e-	when	.	.	.
.	.	8f	I'm	.	.	.
.	.	8fq	_	.	.	.
.	.	[8g	bad	.	.	.
=44	=44	=44	=44	=44	=44	=44
2Gmm	G:min7	4g]	_	.	122.005	.
.	.	4g	I'm	.	.	.
2GMm	G:7	8g	so,	.	122.956	.
.	.	4g	so	.	.	.
.	.	24g-	bad!	.	.	.
.	.	24f	_	.	.	.
.	.	24e-	_	.	.	.
=45	=45	=45	=45	=45	=45	=45
2Cm	C:min	16.f	_	.	123.907	.
.	.	32e-	_	.	.	.
.	.	16f	_	.	.	.
.	.	[16e-	_	.	.	.
.	.	4e-_	_	.	.	.
2FMm	F:9	4e-]	_	.	124.858	.
.	.	4e-	So	.	.	.
=46	=46	=46	=46	=46	=46	=46
*>Letter>A	*>Letter>A	*>Letter>A	*>Letter>A	*>Letter>A	*>Letter>A	*>Letter>A
*>Label>Chorus	*>Label>Chorus	*>Label>Chorus	*>Label>Chorus	*>Label>Chorus	*>Label>Chorus	*>Label>Chorus
1E-M	E-:maj/5	8.g	let's	.	125.809	newline
.	.	[16g	dance	.	.	.
.	.	4g]	_	.	.	.
.	.	4r	.	.	.	.
.	.	8r	.	.	.	.
.	.	8e-	the	.	.	.
=47	=47	=47	=47	=47	=47	=47
1A-M	A-:maj/2	8.e-	last	.	127.706	.
.	.	16e-Q	_	.	.	.
.	.	[16f	dance	.	.	.
.	.	8f]	_	.	.	.
.	.	[8e-	_	.	.	.
.	.	8e-]	_	.	.	.
.	.	4r	.	.	.	.
.	.	8e-	l-	.	.	.
=48	=48	=48	=48	=48	=48	=48
1E-M	E-:maj/5	8.g	-let's	.	129.603	.
.	.	[16g	dance	.	.	.
.	.	4g]	_	.	.	.
.	.	4r	.	.	.	.
.	.	8r	.	.	.	.
.	.	8e-	the	.	.	.
=49	=49	=49	=49	=49	=49	=49
1A-M	A-:maj/2	8.e-	last	.	131.499	.
.	.	16e-Q	_	.	.	.
.	.	[16f	dance	.	.	.
.	.	8f]	_	.	.	.
.	.	[8e-	_	.	.	.
.	.	8e-]	_	.	.	.
.	.	4r	.	.	.	.
.	.	8e-	l-	.	.	.
=50	=50	=50	=50	=50	=50	=50
*F:	*F:	*F:	*	*	*F:	*F:
1FM	F:maj/5	8.a	-let's	.	133.396	newline
.	.	[16a	dance	.	.	.
.	.	4a]	_	.	.	.
.	.	4r	.	.	.	.
.	.	8r	.	.	.	.
.	.	8f	the	.	.	.
=51	=51	=51	=51	=51	=51	=51
1B-M	B-:maj/2	8.f	last	.	135.287	.
.	.	16fQ	_	.	.	.
.	.	[16g	dance	.	.	.
.	.	8g]	_	.	.	.
.	.	[8f	_	.	.	.
.	.	4f]	_	.	.	.
.	.	8g	to	.	.	.
.	.	8f	_	.	.	.
=52	=52	=52	=52	=52	=52	=52
.	.	8gq	_	.	.	.
1GMm	G:9/3	[1a	night!	.	137.178	newline
=53	=53	=53	=53	=53	=53	=53
1B-MM	B-:maj7	1a]	_	.	139.09	.
=54	=54	=54	=54	=54	=54	=54
.	.	8gq	_	.	.	.
1FM	F:maj/3	1b-	_	.	141.002	.
=55	=55	=55	=55	=55	=55	=55
*	*	*clefG2	*	*	*	*
2Gmm	G:min7	[1ff	Ahh	.	142.914	.
2CM	C:sus4(b7,9)	.	.	.	143.87	.
=56	=56	=56	=56	=56	=56	=56
*>Letter>B	*>Letter>B	*>Letter>B	*>Letter>B	*>Letter>B	*>Letter>B	*>Letter>B
*>Label>Verse	*>Label>Verse	*>Label>Verse	*>Label>Verse	*>Label>Verse	*>Label>Verse	*>Label>Verse
1FM	F:maj	1ff_	_	.	144.826	newline
=57	=57	=57	=57	=57	=57	=57
1B-M	B-:maj/5	8ff]	_	.	146.718	.
.	.	8dd	hoo,	.	.	.
.	.	8cc	_	.	.	.
.	.	8dd	_	.	.	.
.	.	8ccq	_	.	.	.
.	.	8dd	hoo	.	.	.
.	.	4cc	_	.	.	.
.	.	8dd	_	.	.	.
=58	=58	=58	=58	=58	=58	=58
1FM	F:maj	4r	.	.	148.61	.
.	.	16r	.	.	.	.
.	.	8dd	Hoo	.	.	.
.	.	16ccQ	_	.	.	.
.	.	[16dd	hoo	.	.	.
.	.	16dd]	_	.	.	.
.	.	[8.cc	_	.	.	.
.	.	16cc]	_	.	.	.
.	.	8dd	_	.	.	.
.	.	16r	.	.	.	.
=59	=59	=59	=59	=59	=59	=59
1CAm	C:aug(b7)	4r	.	.	150.503	.
.	.	8r	.	.	.	.
.	.	8ccq	_	.	.	.
.	.	[8dd	Yeah	.	.	.
.	.	8dd]	_	.	.	.
.	.	4cc	_	.	.	.
.	.	8dd	yee	.	.	.
=60	=60	=60	=60	=60	=60	=60
1FM	F:maj	4a	yee	.	152.395	newline
.	.	8r	.	.	.	.
.	.	8ccq	_	.	.	.
.	.	8dd	Hoo	.	.	.
.	.	[4cc	_	.	.	.
.	.	16cc]	_	.	.	.
.	.	16b-	_	.	.	.
.	.	8a	_	.	.	.
=61	=61	=61	=61	=61	=61	=61
1B-M	B-:maj/5	4r	.	.	154.298	.
.	.	16r	.	.	.	.
.	.	8dd	hoo	.	.	.
.	.	16ccQ	_	.	.	.
.	.	[16dd	hoo	.	.	.
.	.	16dd]	_	.	.	.
.	.	[8.cc	_	.	.	.
.	.	16cc]	_	.	.	.
.	.	8dd	_	.	.	.
.	.	[16cc	_	.	.	.
=62	=62	=62	=62	=62	=62	=62
1FMm	F:7	16cc]	_	.	156.201	.
.	.	16ddQ	_	.	.	.
.	.	8ee-	hoo	.	.	.
.	.	[16dd	_	.	.	.
.	.	16dd]	_	.	.	.
.	.	16ccQ	_	.	.	.
.	.	8dd	hoo	.	.	.
.	.	16ccQ	_	.	.	.
.	.	[16dd	hoo	.	.	.
.	.	16dd]	_	.	.	.
.	.	[8.cc	_	.	.	.
.	.	8.cc]	_	.	.	.
.	.	16r	.	.	.	.
=63	=63	=63	=63	=63	=63	=63
1FMm	F:7	4r	.	.	158.104	.
.	.	4gQ	_	.	.	.
.	.	4~a	Oh,	.	.	.
.	.	4~a	_	.	.	.
.	.	4aQ	_	.	.	.
.	.	4g	I	.	.	.
=64	=64	=64	=64	=64	=64	=64
1B-MM	B-:maj7	8f	n-	.	160.007	newline
.	.	8g	-need	.	.	.
.	.	8f	_	.	.	.
.	.	[8f	you,	.	.	.
.	.	4.f]	_	.	.	.
.	.	8fq	_	.	.	.
.	.	[8g	by	B	.	.
=65	=65	=65	=65	=65	=65	=65
1CM	C:maj/b7	4g]	_	.	161.908	.
.	.	8g	me	.	.	.
.	.	8e	_	.	.	.
.	.	4r	.	.	.	.
.	.	8.r	.	.	.	.
.	.	16gQ	_	.	.	.
.	.	[16a	_	.	.	.
=66	=66	=66	=66	=66	=66	=66
1Amm	A:min7	8a]	_	.	163.809	.
.	.	[4.a	me,	.	.	.
.	.	4a]	_	.	.	.
.	.	8gq	_	.	.	.
.	.	8a	to	.	.	.
.	.	8g	guide	B	.	.
=67	=67	=67	=67	=67	=67	=67
1Dm	D:min	8f	_	.	165.709	.
.	.	8fq	_	.	.	.
.	.	8g	me!	.	.	.
.	.	8f	_	.	.	.
.	.	8fq	_	.	.	.
.	.	8g	_	.	.	.
.	.	4f	_	.	.	.
.	.	8f	To	.	.	.
.	.	8a-q	_	.	.	.
.	.	[8a	hold	C	.	.
=68	=68	=68	=68	=68	=68	=68
1B-MM	B-:maj7	8a]	_	.	167.61	newline
.	.	8g	_	.	.	.
.	.	8g	me	.	.	.
.	.	[8f	_	.	.	.
.	.	8f]	_	.	.	.
.	.	8r	.	.	.	.
.	.	8f	to	.	.	.
.	.	8gq	_	.	.	.
.	.	[8a	scold	C	.	.
=69	=69	=69	=69	=69	=69	=69
1CM	C:maj/b7	8a]	_	.	169.495	.
.	.	8g	_	.	.	.
.	.	8g	me	.	.	.
.	.	8r	.	.	.	.
.	.	8e	cuz	.	.	.
.	.	8f	when	.	.	.
.	.	8g	I'm	.	.	.
.	.	8gq	_	.	.	.
.	.	[8a	bad,	.	.	.
=70	=70	=70	=70	=70	=70	=70
2Amm	A:min7	4a]	_	.	171.38	.
.	.	4a	I'm	.	.	.
2AMm	A:7	4cc#	so,	.	172.323	.
.	.	8gq	_	.	.	.
.	.	8a	so	.	.	.
.	.	8g	_	.	.	.
=71	=71	=71	=71	=71	=71	=71
.	.	8fq	_	.	.	.
2Dm	D:min	16g	_	.	173.266	.
.	.	16a-	_	.	.	.
.	.	16g	_	.	.	.
.	.	[16f	_	.	.	.
.	.	8f]	_	.	.	.
.	.	[8f	bad!	.	.	.
2GMm	G:9/5	4f]	_	.	174.208	.
.	.	8f	So	.	.	.
.	.	8d	_	.	.	.
=72	=72	=72	=72	=72	=72	=72
*>Letter>A	*>Letter>A	*>Letter>A	*>Letter>A	*>Letter>A	*>Letter>A	*>Letter>A
*>Label>Chorus	*>Label>Chorus	*>Label>Chorus	*>Label>Chorus	*>Label>Chorus	*>Label>Chorus	*>Label>Chorus
1FM	F:maj/5	8r	.	.	175.151	newline
.	.	16~a-	come	.	.	.
.	.	[16a	on,	.	.	.
.	.	8a]	_	.	.	.
.	.	[8f	ba	.	.	.
.	.	8f]	_	.	.	.
.	.	8d	by	.	.	.
.	.	4r	.	.	.	.
=73	=73	=73	=73	=73	=73	=73
1B-M	B-:maj/2	8r	.	.	177.049	.
.	.	[8f	Dance	.	.	.
.	.	16f]	_	.	.	.
.	.	8f	that	.	.	.
.	.	[16f	dance	.	.	.
.	.	8f]	_	.	.	.
.	.	8r	.	.	.	.
.	.	4r	.	.	.	.
=74	=74	=74	=74	=74	=74	=74
1FM	F:maj/5	8r	.	.	178.947	.
.	.	16~a-	Come	.	.	.
.	.	[16a	on,	.	.	.
.	.	8a]	_	.	.	.
.	.	[8f	ba	.	.	.
.	.	8f]	_	.	.	.
.	.	8d	by	.	.	.
.	.	4r	.	.	.	.
=75	=75	=75	=75	=75	=75	=75
1B-M	B-:maj/2	8r	.	.	180.845	.
.	.	8fq	_	.	.	.
.	.	[8g	Dance	.	.	.
.	.	16g]	_	.	.	.
.	.	8fq	_	.	.	.
.	.	8.g	that	.	.	.
.	.	8.f	dance	.	.	.
.	.	16d	_	.	.	.
.	.	4r	.	.	.	.
=76	=76	=76	=76	=76	=76	=76
1FM	F:maj/5	8r	.	.	182.743	newline
.	.	8~a-	Come	.	.	.
.	.	[8a	on,	.	.	.
.	.	[8f	ba	.	.	.
.	.	8f]	_	.	.	.
.	.	8d	by	.	.	.
.	.	4r	.	.	.	.
=77	=77	=77	=77	=77	=77	=77
1B-M	B-:maj/2	8r	.	.	184.644	.
.	.	8g	Let's	.	.	.
.	.	8b-	_	.	.	.
.	.	8a-	dance	.	.	.
.	.	4f	_	.	.	.
.	.	8g	to	.	.	.
.	.	8f	_	.	.	.
=78	=78	=78	=78	=78	=78	=78
1GMm	G:9/3	1a_	night	.	186.545	newline
=79	=79	=79	=79	=79	=79	=79
1B-MM	B-:maj7	1a_	_	.	188.455	.
=80	=80	=80	=80	=80	=80	=80
1FM	F:maj/3	1a]	_	.	190.364	.
=81	=81	=81	=81	=81	=81	=81
2Gmm	G:min7	4r	.	.	192.273	.
.	.	8r	.	.	.	.
.	.	16g	Yeah!	.	.	.
.	.	16a-	_	.	.	.
2CM	C:sus4(b7,9)	8g	_	.	193.228	.
.	.	8fq	_	.	.	.
.	.	8g	_	.	.	.
.	.	16a-	_	.	.	.
.	.	16g	_	.	.	.
.	.	[8f	_	.	.	.
=82	=82	=82	=82	=82	=82	=82
1CM	C:sus4(b7,9)	1f]	_	.	194.183	newline
=83	=83	=83	=83	=83	=83	=83
1FM	F:maj	1r	.	.	195.625	.
1r;	1r	r;	.	.	197.068	.
1r;	1r	r;	.	.	199.654	.
*-	*-	*-	*-	*-	*-	*-
!!!BillboardChartDate: 1978/07/01, 1978/09/23, 1978/05/20
!!!BillboardPeak: 3, 3, 3
!!!BillboardWeeksOnChart: 21, 21, 21
!!!COC: Donna Summer
!!!ENC: Nathaniel Condit-Schultz
!!!EST: Awating manual error checking and editing.
!!!OTL: Last Dance
!!!RDF**chordsym: original McGill chord annotation + (implied pitch class set, with bass pitch in first position)
!!!RDF**harmony: **recip + pitch class of root + harmonic quality
!!!RDF**leadinstrument: original McGill primary instrumentation annotation
!!!RDF**phrase: newline = linebreak in original McGill transcription
!!!RDF**timestamp: McGill audio timestamp in seconds
!!!RDT: 2017/01/12/
!!!SampleActualRank: 17, 98, 75
!!!SampleID#: 501, 1217, 1242
!!!SampleTargetRank: 17, 99, 77
!!!MBID: 2899f6fd-8419-41bf-a2eb-babb58efa99d